X:3
T:Green Bushes [1], The
M:3/4
L:1/8
R:Air
N:"Andante"
S:Stanford/Petrie (1905), No. 368
Z:AK/Fiddler's Companion
K:Ador
E2 | A3 cBA | G2A2 cd | e2 dc A2 | G4 E2 |
A3 cBA | G2A2 cd | e2f2 e^d | e4 ||
cd | e2a2a2 | e2f2g2 | B2 dc AF | G4E2 |
A3 cBA | G2A2 cd | e2 ed B>A | A4 ||

